assets/img/braze_icons/tablet-02.svg

<svg fill="none" height="24" viewBox="0 0 24 24" width="24" xmlns="http://www.w3.org/2000/svg"><path clip-rule="evenodd" d="m7.16146 1h9.67704c.5272-.000015.982-.000029 1.3565.03057.3954.0323.7886.10362 1.167.29641.5645.28762 1.0234.74657 1.311 1.31105.1928.37838.2641.7716.2964 1.16695.0306.37456.0306.82932.0306 1.35646v13.67716c0 .5271 0 .9819-.0306 1.3564-.0323.3954-.1036.7886-.2964 1.167-.2876.5645-.7465 1.0234-1.311 1.311-.3784.1928-.7716.2641-1.167.2964-.3745.0306-.8293.0306-1.3564.0306h-9.67716c-.52714 0-.9819 0-1.35646-.0306-.39535-.0323-.78857-.1036-1.16695-.2964-.56448-.2876-1.02343-.7465-1.31105-1.311-.19279-.3784-.26411-.7716-.29641-1.167-.0306-.3745-.03059-.8293-.03057-1.3564v-13.67718c-.00002-.52711-.00003-.98189.03057-1.35644.0323-.39535.10362-.78857.29641-1.16695.28762-.56448.74657-1.02343 1.31105-1.31105.37838-.19279.7716-.26411 1.16695-.29641.37455-.030599.82936-.030585 1.35648-.03057zm7.83854 2v.4c0 .56005 0 .84008-.109 1.05399-.0959.18816-.2488.34114-.437.43702-.2139.10899-.4939.10899-1.054.10899h-2.8c-.5601 0-.84008 0-1.05399-.10899-.18816-.09588-.34114-.24886-.43702-.43702-.10899-.21391-.10899-.49394-.10899-1.05399v-.4z" fill="#801ed7" fill-rule="evenodd"/></svg>

<svg width="24" height="24" viewBox="0 0 24 24" fill="none" xmlns="http://www.w3.org/2000/svg">
<path fill-rule="evenodd" clip-rule="evenodd" d="M7.16146 1H16.8385C17.3657 0.999985 17.8205 0.999971 18.195 1.03057C18.5904 1.06287 18.9836 1.13419 19.362 1.32698C19.9265 1.6146 20.3854 2.07355 20.673 2.63803C20.8658 3.01641 20.9371 3.40963 20.9694 3.80498C21 4.17954 21 4.6343 21 5.16144V18.8386C21 19.3657 21 19.8205 20.9694 20.195C20.9371 20.5904 20.8658 20.9836 20.673 21.362C20.3854 21.9265 19.9265 22.3854 19.362 22.673C18.9836 22.8658 18.5904 22.9371 18.195 22.9694C17.8205 23 17.3657 23 16.8386 23H7.16144C6.6343 23 6.17954 23 5.80498 22.9694C5.40963 22.9371 5.01641 22.8658 4.63803 22.673C4.07355 22.3854 3.6146 21.9265 3.32698 21.362C3.13419 20.9836 3.06287 20.5904 3.03057 20.195C2.99997 19.8205 2.99998 19.3657 3 18.8386V5.16142C2.99998 4.63431 2.99997 4.17953 3.03057 3.80498C3.06287 3.40963 3.13419 3.01641 3.32698 2.63803C3.6146 2.07355 4.07355 1.6146 4.63803 1.32698C5.01641 1.13419 5.40963 1.06287 5.80498 1.03057C6.17953 0.999971 6.63434 0.999985 7.16146 1ZM15 3V3.4C15 3.96005 15 4.24008 14.891 4.45399C14.7951 4.64215 14.6422 4.79513 14.454 4.89101C14.2401 5 13.9601 5 13.4 5H10.6C10.0399 5 9.75992 5 9.54601 4.89101C9.35785 4.79513 9.20487 4.64215 9.10899 4.45399C9 4.24008 9 3.96005 9 3.4V3H15Z" fill="#801ED7"/>
</svg>
